X:36
T:Bridal Sho
R:reel
C:Bruce Osborne - Jan. 2003
Z:abc by bosborne@kos.net
M:2/4
L:1/8
K:Cmaj
E/F/|G/c/B/c/ e/c/B/c/|G/c/e/g/ a/g/e/g/|d/B/G/F/ D/B,/G,/B,/|C/D/E/F/ GE/F/|\
G/c/B/c/ e/c/B/c/|G/c/e/g/ a/g/e/g/|d/B/G/F/ D/B,/G,/B,/|C/B,/E/D/ C:|
|:E/F/|G/c/B/c/ e/c/B/c/|e/c/e/f/ gd/e/|f/d/^c/d/ G/d/^c/d/|e/c/c/B/ cE/F/|\
G/c/B/c/ e/c/B/c/|e/c/e/f/ gd/e/|f/d/^c/d/ G/d/^c/d/|e/c/c/B/ c:|
